X: 34800
T: Road To Sligo
R: slip jig
M: 9/8
K: Dmajor
|:ABA F2G A3|BcB G2A Bcd|ABA F2G A2A|efe e2d cBA:|
|:def fge f3|def fgf ecA|def fge f3|efe e2d cBA:|

